X:21
T:January Spring
C:Sarah Gowan
M:3/4
L:1/4
K:G
D|"G"G>FG |"Am"AGA|"Bm"Bd>d|"C"cBA|
"Bm"Bd>d|"C"cBA|"Em"B<GE|"D"D2D|
"Em7"G>FG |"Am"AGA|"Bm"Bd>d|"C"cBA|
"Bm"Bd>d|"Am"cBA|"G"BGF|"G"GBd||
"Am"e>de|"C"gfe|"Bm"fd^c|"D"d2e|
"B7"f=f^f|agf|"Em"gd^c|dBG|
"Am"cc>c|edc|"Bm"dBc|d2D|
"G"GFG|"Am"AGA|"Bm"Bd>d|"C"cBA|
"Bm"Bd>d|"C"cBA|"D"BG>F|"G"G3|]
W:%
W:The bears are awake and the flowers in bloom - whatever happened to winter
